X:1
T:Title
%%score ( 1 2 3 ) { 4 | 5 }
L:1/8
Q:1/4=130
M:3/4
K:Bb
V:1 treble nm="Grand Piano, Staff 1"
V:2 treble 
V:3 treble 
V:4 bass nm="Choir Pad, Louella, LM"
V:5 bass 
V:1
 [DF]2 [DF]2 [EG]2 | [DF]2 [B,D]4 | [DF]2 [DF]2 [EG]2 | [DF]2 [DB]4 | [DF]2 [DF]2 [EG]2 | %5
w: By~Harmonia~Sacra,~1867 * *|||||
 [DF]2 F2 B2 | cB [FA]4 | [=EG]2 F4 | [DF]2 [EF]2 [FA]2 | [Ec]2 [Ec]2 [DB]2 | [FA]2 [GB]2 [FA]2 | %11
w: ||||||
 [EG]2 [DF]4 | [DF]2 F2 B2 | [Fc]2 [Fd]4 | z2 z2 B2 | A2 z2 z2 | z6 |] %17
w: ||||||
V:2
 x6 | x6 | x6 | x6 | x6 | z2 D4 | G2 z2 z2 | x6 | x6 | x6 | x6 | x6 | x6 | x6 | [FB]2 c2 z D | %15
 CE [DB]4- | [DB]4 z2 |] %17
V:3
 x6 | x6 | x6 | x6 | x6 | x6 | x6 | x6 | x6 | x6 | x6 | x6 | x6 | x6 | z2 E4 | x6 | x6 |] %17
V:4
 B,2 B,4 | B,2 F,4 | B,2 B,4 | B,2 F,4 | B,2 B,4 | B,2 B,4 | D2 C4 | B,2 A,4 | z6 | z6 | z6 | z6 | %12
 B,2 D2 B,2 | A,2 B,4 | B,2 G,2 F,2 | F,2 F,4- | F,4 z2 |] %17
V:5
 B,,2 B,,4 | B,,2 B,,4 | B,,2 B,,4 | B,,2 B,,4 | B,,2 B,,4 | B,,2 B,,4 | G,,2 C,4 | C,2 F,4 | z6 | %9
 z6 | z6 | z6 | B,,2 B,,2 D,2 | F,2 z2 z2 | D,2 E,2 z2 | F,,2 B,,4- | B,,4 z2 |] %17

